X:1
T:Tell It Out
T:Ira David Sankey, 1881
T:Tell It Out
T:Public Domain
T:Public Domain
C:Ira David Sankey, 1881
Z:Public Domain
%%score ( 1 2 ) ( 3 4 )
L:1/8
M:4/4
K:A
V:1 treble 
V:2 treble 
V:3 bass 
V:4 bass 
V:1
 [CE][CE] | [CA]>[DG] [EA][EB] [Ec][EB][Ec][Ed] | [Ae]2 [Ec]2 [CA]2 [Ec]>[Ed] | [Ae]6 [Ed]>[Ec] | %4
w: 1.~Tell it|out a- mong the heath- en that the|Lord is King; Tell it|out! Tell it|
w: 2.~Tell it|out a- mong the heath- en that the|Sav- ior reigns; Tell it|out! Tell it|
w: 3.~Tell it|out a- mong the heath- en, Je- sus|reigns a- bove; Tell it|out! Tell it|
 [EB]6 EE | [EA]>[EG] [EA][EB] [Ec][EB][Ec][Ed] | [Ae]2 [Ec]2 [CA]2 [EA]>[EB] | [Ac]6 [GB]>[Gc] | %8
w: out! Tell it|mong the na- tions, bid them shout and|sing; Tell it out! Tell|it out! Tell|
w: out! Tell it|mong the na- tions, bid them break their|chains; Tell it out! Tell|it out! Tell|
w: out! Tell it|mong the na- tions that His reign is|love; Tell it out! Tell|it out! Tell|
 A6 [EG][FA] | [GB]>[GB] [GB][GB] [Ac][GB][GB][GB] | [GB]2 [FA]2 [EG]2 [EG][FA] | %11
w: it out with|dor- a- tion that He shall in- crease,|That the might- y King|
w: it out a-|the weep- ing ones that Je- sus lives,|Tell it out a- mong|
w: it out a-|the high- ways and the lanes at home,|Let it ring a- cross|
 [GB]>[GB] [GB][GB] [Ac][GB][EG]E | [EG]2 [^DF]2 E2 EE | [EA]>[DG] [CA][EB] [Ec][EB][Ec][Ed] | %14
w: of Glo- ry is the King of Peace;|it out with ju- bi-|the song ne’er cease; Tell it out! Tell|
w: the wear- y ones what rest He gives,|it out a- mong the|He still re- ceives; Tell it out! Tell|
w: the mount- ains and the o- cean’s foam,|the sound of ma- ny|our glad shout come! Tell it out! Tell|
 [Ae]2 [Ec]2 [CA]2 [Ec]>[Ed] | [Ee]6 [GB]>[Gc] | A6 |] %17
w: it out! * * *|||
w: it out! * * *|||
w: it out! * * *|||
V:2
 x2 | x8 | x8 | x8 | x6 EE | x8 | x8 | x8 | A6 x2 | x8 | x8 | x7 E | x4 E2 EE | x8 | x8 | x8 | %16
w: ||||out a-||||a-|||Tell|la- tion, let||||
w: ||||out a-||||mong|||Tell|sin- ners that||||
w: ||||out a-||||mong|||Like|wa- ters, let||||
 A6 |] %17
w: |
w: |
w: |
V:3
 [A,,A,][A,,A,] | [A,,A,]>[B,,E,] [C,A,][E,G,] A,[E,G,]A,[A,B,] | [A,C]2 A,2 A,2 A,>[A,B,] | %3
 [A,C]6 [G,B,]>A, | [E,G,]6 [E,G,][D,B,] | [C,A,]>[B,,D] [A,,C][E,G,] A,[E,G,]A,[A,B,] | %6
 [A,C]2 A,2 A,2 [A,C]>[A,D] | [E,E]6 [E,D]>[E,E] | [A,,C]6 [E,B,][E,B,] | %9
 [E,E]>[E,E] [E,E][E,E] [E,E][E,E][E,E][G,E] | [B,E]2 [B,,B,]2 [E,B,]2 [E,B,][E,B,] | %11
 [E,E]>[E,E] [E,E][E,E] [E,E][E,E][E,E][G,B,] | B,2 [B,,A,]2 [E,G,]2 [E,G,][D,B,] | %13
 [C,A,]>[B,,E,] [A,,A,][E,G,] A,[E,G,]A,[A,B,] | [A,C]2 A,2 A,2 A,>[A,B,] | [A,C]6 [E,D]>[E,E] | %16
 [A,,C]6 |] %17
V:4
 x2 | x4 A,A, x2 | x2 A,2 A,2 A,3/2 x/ | x15/2 A,/ | x8 | x4 A,A, x2 | x2 A,2 A,2 x2 | x8 | x8 | %9
 x8 | x8 | x8 | B,2 x6 | x4 A,A, x2 | x2 A,2 A,2 A,3/2 x/ | x8 | x6 |] %17

